X: 4
T: Far Away
R: waltz
M: 3/4
L: 1/8
K: Bmin
|: FA | "Bm" B3 F Bd | "F#m"cA F2 FA | "Bm"B3 F Be | "F#m"c4 dc |
| "G"B3 G Bd | "F#m"cA F2 de | "Bm"fe dc BA |1 "Bm"B4 :|2 "Bm"B3 ||
|: c de | "D"f3 d fa | "A"ec A2 de | "Bm"f3 d fa | "A"e4 de |
| "Bm"fd B"A"e cA | "G"dB G"A"c AE | "Bm"F2 B2 "A"A2 |1 "Bm"B3 :|2 "Bm"B6 |]


Tune 187	Setting 26773

